X:7
T:Pastourelle
O:XIIIe siècle
C:G. de Berneville
Z:Transcrit et/ou corrigé par B@D - 2006-09-30
Z:Pour toute observation mailto:-@-
M:3/4
L:1/4
Q:3/4=76
K:Am
V:1
A2e | e2d | (cB)A | G2z | A2B | (c/B/)AG | A2z :| (B2c) | d2d | (d2c) | (d2e) |
(e2f) | (e2d) | (cB)A | (G2A) | (A2B) | (c/B/)AG | A2z | A2(A/B/) | (c2B) | A2z | (A2B) | (cB)A |
(c2d) | e2z | d2(c/B/) | (A2G) | A2z |: AMc2 | AMG2 | cMd2 | e2z | (cB)A | G2d | (c/B/)AG | A2z :|
V:2 clef=perc stafflines=1 staffscale=0.6
BzB | BzB | Bzz | Bzz | Bzz | BzB | Bzz :| BzB | BzB | Bzz | BzB |
BzB | Bzz | BzB | BzB | Bzz | BzB | Bzz |  Bzz | Bzz | BzB | BzB | BzB | 
BzB | Bzz | BzB | BzB | Bzz |: zzB | zzB | zzB | Bzz | BzB | BzB | BzB | Bzz :| 



%%header "$P0	 $IR 	$P1"
%%footer $D - Éditions Galouvielle - 2009 - À usage librement privé dans le cadre familial

